Suru++-Ubuntu/apps/scalable/rapid-photo-downloader.svg

<svg width="256" height="256" version="1.1" viewBox="0 0 67.73 67.73" xmlns="http://www.w3.org/2000/svg" xmlns:xlink="http://www.w3.org/1999/xlink">
 <defs>
  <linearGradient id="linearGradient1108" x1="296" x2="296" y1="-212" y2="236" gradientUnits="userSpaceOnUse">
   <stop style="stop-color:#ffffff" offset="0"/>
   <stop style="stop-color:#ffffff;stop-opacity:.09803922" offset=".125"/>
   <stop style="stop-color:#000000;stop-opacity:.09803922" offset=".925"/>
   <stop style="stop-color:#000000;stop-opacity:.49803922" offset="1"/>
  </linearGradient>
  <clipPath id="clipPath1082-3-361">
   <path d="M 361.9375,-212 C 507.2348,-212 528,-191.28677 528,-46.125 V 70.125 C 528,215.28618 507.2348,236 361.9375,236 H 214.0625 C 68.7652,236 48,215.28618 48,70.125 V -46.125 C 48,-191.28677 68.7652,-212 214.0625,-212 Z" style="fill:#8c59d9"/>
  </clipPath>
  <filter id="filter4569" x="-.01" y="-.01" width="1.023" height="1.025" style="color-interpolation-filters:sRGB">
   <feGaussianBlur stdDeviation="1.16"/>
  </filter>
  <filter id="filter939" x="-.02" y="-.03" width="1.046" height="1.05" style="color-interpolation-filters:sRGB">
   <feGaussianBlur stdDeviation="2.32"/>
  </filter>
  <filter id="filter996" x="-.05" y="-.04" width="1.106" height="1.088" style="color-interpolation-filters:sRGB">
   <feGaussianBlur stdDeviation=".967"/>
  </filter>
 </defs>
 <g transform="translate(0,-229.26666)">
  <path transform="matrix(.26970779 0 0 .26970779 -1.9098094e-8 231.46531)" d="m162.53675 5.5680001c72.64865 0 83.03125 10.356615 83.03125 82.937505v58.125005c0 72.58059-10.3826 82.9375-83.03125 82.9375h-73.937496c-72.648654 0-83.031254-10.35691-83.031254-82.9375v-58.125005c0-72.58089 10.3826-82.937505 83.031254-82.937505z" style="filter:url(#filter939);opacity:.2"/>
  <path d="m43.837429 232.42763c19.593907 0 22.394176 2.79326 22.394176 22.36889v15.67677c0 19.57555-2.800269 22.36889-22.394176 22.36889h-19.941519c-19.593909 0-22.394177-2.79334-22.394177-22.36889v-15.67677c0-19.57563 2.8002682-22.36889 22.394177-22.36889z" style="fill:none;opacity:.1;stroke-linecap:round;stroke-linejoin:round;stroke-width:1.0788311;stroke:#000000"/>
  <path transform="matrix(.26970779 0 0 .26970779 -1.9098094e-8 231.46531)" d="m162.53675 3.5680001c72.64865 0 83.03125 10.356615 83.03125 82.937505v58.125005c0 72.58059-10.3826 82.9375-83.03125 82.9375h-73.937496c-72.648654 0-83.031254-10.35691-83.031254-82.9375v-58.125005c0-72.58089 10.3826-82.937505 83.031254-82.937505z" style="filter:url(#filter4569);opacity:.1"/>
  <path d="m43.837427 232.42763c19.593907 0 22.394175 2.79326 22.394175 22.36889v15.67677c0 19.57555-2.800268 22.36889-22.394175 22.36889h-19.94152c-19.593907 0-22.394176-2.79334-22.394176-22.36889v-15.67677c0-19.57563 2.8002682-22.36889 22.394176-22.36889z" style="fill:#d32727"/>
  <g transform="translate(1.0934022,1.7840166)" style="filter:url(#filter996);opacity:.3">
   <path d="m31.150696 275.8907v-7.08638h1.029647v-6.60183h-17.117758l-4.141347 4.14136v6.51848h1.090211v1.93815h-1.090211v12.53743h21.259105v-11.44721zm-15.808048-5.81445h-2.059287v-4.36085h2.059287zm3.5129-2.18042h-2.059286v-4.36087h2.059286zm3.634035 0h-2.059286v-4.36087h2.059286zm3.452333 0h-2.059288v-4.36087h2.059288zm3.634032 0h-2.059282v-4.36087h2.059282z"/>
   <g transform="matrix(-1,0,0,1,89.35903,-4.0261033)">
    <rect x="39.69" y="238.79" width="14.552" height="6.615"/>
    <rect x="37.04" y="241.44" width="2.646" height="6.615"/>
    <path d="m54.963197 252.07818v-7.08638h1.029647v-6.60183h-17.117758l-4.141347 4.14136v6.51848h1.090211v1.93815h-1.090211v12.53743h21.259105v-11.44721zm-15.808048-5.81445h-2.059287v-4.36085h2.059287zm3.5129-2.18042h-2.059286v-4.36087h2.059286zm3.634035 0h-2.059286v-4.36087h2.059286zm3.452333 0h-2.059288v-4.36087h2.059288zm3.634032 0h-2.059282v-4.36087h2.059282z"/>
   </g>
  </g>
  <rect transform="rotate(90)" x="235.09" y="-65.6" width="31.757" height="31.757" style="fill:none"/>
  <path transform="matrix(.26458333 0 0 .26458333 0 229.26666)" d="m25.707031 22.121094c-0.177828 0.115652-0.397454 0.198255-0.572265 0.316406-1.790054 1.209852-3.422296 2.551156-4.910157 4.037109-1.48786 1.485954-2.831475 3.116425-4.042968 4.904297-1.211493 1.787873-2.291004 3.732049-3.251953 5.847656-0.96095 2.115608-1.802833 4.401935-2.539063 6.871094-0.7362302 2.469159-1.3669615 5.122176-1.9042969 7.970703s-0.9814381 5.892773-1.3457031 9.146485c-0.364265 3.253711-0.6482154 6.715678-0.8652344 10.40039-0.4340378 7.369426-0.5996094 15.626671-0.5996094 24.875v59.251956c0 9.24829 0.1655716 17.50559 0.5996094 24.875 0.217019 3.6847 0.5009694 7.14668 0.8652344 10.40039 0.364265 3.2537 0.8083677 6.29796 1.3457031 9.14648 0.5373354 2.84853 1.1680667 5.50155 1.9042969 7.97071 0.73623 2.46915 1.578113 4.75548 2.539063 6.87109 0.960949 2.11561 2.04046 4.05978 3.251953 5.84766 1.211493 1.78787 2.555108 3.41833 4.042968 4.90429 1.487861 1.48596 3.120103 2.82725 4.910157 4.03711 1.790053 1.20986 3.737399 2.28848 5.855468 3.24805 2.11807 0.95957 4.406996 1.80005 6.878907 2.53515 2.471911 0.73511 5.126939 1.3659 7.978515 1.90235 2.851577 0.53645 5.899184 0.98013 9.15625 1.34375 3.257066 0.36361 6.723729 0.64669 10.41211 0.86328 7.376761 0.43319 15.641473 0.59766 24.898437 0.59766h75.371097c9.25696 0 17.52167-0.16447 24.89843-0.59766 3.68838-0.21659 7.15505-0.49967 10.41211-0.86328 3.25707-0.36362 6.30468-0.8073 9.15625-1.34375 2.85158-0.53645 5.50661-1.16724 7.97852-1.90235 2.47191-0.7351 4.76084-1.57558 6.87891-2.53515 1.75358-0.79445 3.32043-1.72497 4.84765-2.68945l-204.15039-208.23243z" style="fill:#ffffff;opacity:.1"/>
  <rect x="17.2" y="263.93" width="14.552" height="6.615" style="fill:#ffa600"/>
  <path transform="matrix(.1348539 0 0 .1348539 -4.9712559 261.01666)" d="M 361.9375,-212 C 507.2348,-212 528,-191.28677 528,-46.125 V 70.125 C 528,215.28618 507.2348,236 361.9375,236 H 214.0625 C 68.7652,236 48,215.28618 48,70.125 V -46.125 C 48,-191.28677 68.7652,-212 214.0625,-212 Z" clip-path="url(#clipPath1082-3-361)" style="fill:none;opacity:.4;stroke-linecap:round;stroke-linejoin:round;stroke-width:8;stroke:url(#linearGradient1108)"/>
  <rect x="14.29" y="266.57" width="2.646" height="6.615" style="fill:#ffa600"/>
  <g transform="translate(1.0934022,1.7840166)">
   <path d="m31.150696 275.8907v-7.08638h1.029647v-6.60183h-17.117758l-4.141347 4.14136v6.51848h1.090211v1.93815h-1.090211v12.53743h21.259105v-11.44721zm-15.808048-5.81445h-2.059287v-4.36085h2.059287zm3.5129-2.18042h-2.059286v-4.36087h2.059286zm3.634035 0h-2.059286v-4.36087h2.059286zm3.452333 0h-2.059288v-4.36087h2.059288zm3.634032 0h-2.059282v-4.36087h2.059282z" style="fill:#2c568b"/>
   <g transform="matrix(-1,0,0,1,89.35903,-4.0261033)" style="fill:#8c063a">
    <rect x="39.69" y="238.79" width="14.552" height="6.615" style="fill:#ffa600"/>
    <rect x="37.04" y="241.44" width="2.646" height="6.615" style="fill:#ffa600"/>
    <path d="m54.963197 252.07818v-7.08638h1.029647v-6.60183h-17.117758l-4.141347 4.14136v6.51848h1.090211v1.93815h-1.090211v12.53743h21.259105v-11.44721zm-15.808048-5.81445h-2.059287v-4.36085h2.059287zm3.5129-2.18042h-2.059286v-4.36087h2.059286zm3.634035 0h-2.059286v-4.36087h2.059286zm3.452333 0h-2.059288v-4.36087h2.059288zm3.634032 0h-2.059282v-4.36087h2.059282z" style="fill:#8c063a"/>
   </g>
  </g>
 </g>
</svg>

<svg xmlns="http://www.w3.org/2000/svg" xmlns:xlink="http://www.w3.org/1999/xlink" width="256" height="256" version="1.1" viewBox="0 0 67.73 67.73">
 <defs>
  <linearGradient id="linearGradient1108" x1="296" x2="296" y1="-212" y2="236" gradientUnits="userSpaceOnUse" xlink:href="#linearGradient1013"/>
  <linearGradient id="linearGradient1013">
   <stop offset="0" style="stop-color:#ffffff"/>
   <stop style="stop-color:#ffffff;stop-opacity:0.09803922" offset=".125"/>
   <stop style="stop-color:#000000;stop-opacity:0.09803922" offset=".925"/>
   <stop offset="1" style="stop-color:#000000;stop-opacity:0.49803922"/>
  </linearGradient>
  <clipPath id="clipPath1082-3-361" clipPathUnits="userSpaceOnUse">
   <path d="M 361.9375,-212 C 507.2348,-212 528,-191.28677 528,-46.125 V 70.125 C 528,215.28618 507.2348,236 361.9375,236 H 214.0625 C 68.7652,236 48,215.28618 48,70.125 V -46.125 C 48,-191.28677 68.7652,-212 214.0625,-212 Z" style="fill:#8c59d9"/>
  </clipPath>
  <filter style="color-interpolation-filters:sRGB" id="filter4569" width="1.023" height="1.025" x="-.01" y="-.01">
   <feGaussianBlur stdDeviation="1.16"/>
  </filter>
  <filter style="color-interpolation-filters:sRGB" id="filter939" width="1.046" height="1.05" x="-.02" y="-.03">
   <feGaussianBlur stdDeviation="2.32"/>
  </filter>
  <filter style="color-interpolation-filters:sRGB" id="filter996" width="1.106" height="1.088" x="-.05" y="-.04">
   <feGaussianBlur stdDeviation=".967"/>
  </filter>
 </defs>
 <g transform="translate(0,-229.26666)">
  <path style="opacity:0.2;filter:url(#filter939)" d="m 162.53675,5.5680001 c 72.64865,0 83.03125,10.3566149 83.03125,82.9375049 v 58.125005 c 0,72.58059 -10.3826,82.9375 -83.03125,82.9375 H 88.599254 C 15.9506,229.56801 5.568,219.2111 5.568,146.63051 V 88.505505 c 0,-72.58089 10.3826,-82.9375049 83.031254,-82.9375049 z" transform="matrix(0.26970779,0,0,0.26970779,-1.9098094e-8,231.46531)"/>
  <path d="m 43.837429,232.42763 c 19.593907,0 22.394176,2.79326 22.394176,22.36889 v 15.67677 c 0,19.57555 -2.800269,22.36889 -22.394176,22.36889 H 23.89591 c -19.5939088,0 -22.394177,-2.79334 -22.394177,-22.36889 v -15.67677 c 0,-19.57563 2.8002682,-22.36889 22.394177,-22.36889 z" style="opacity:0.1;fill:none;stroke:#000000;stroke-width:1.07883108;stroke-linecap:round;stroke-linejoin:round"/>
  <path d="m 162.53675,3.5680001 c 72.64865,0 83.03125,10.3566149 83.03125,82.9375049 v 58.125005 c 0,72.58059 -10.3826,82.9375 -83.03125,82.9375 H 88.599254 C 15.9506,227.56801 5.568,217.2111 5.568,144.63051 V 86.505505 c 0,-72.58089 10.3826,-82.9375049 83.031254,-82.9375049 z" transform="matrix(0.26970779,0,0,0.26970779,-1.9098094e-8,231.46531)" style="opacity:0.1;filter:url(#filter4569)"/>
  <path style="fill:#d32727" d="m 43.837427,232.42763 c 19.593907,0 22.394175,2.79326 22.394175,22.36889 v 15.67677 c 0,19.57555 -2.800268,22.36889 -22.394175,22.36889 h -19.94152 c -19.5939074,0 -22.3941756,-2.79334 -22.3941756,-22.36889 v -15.67677 c 0,-19.57563 2.8002682,-22.36889 22.3941756,-22.36889 z"/>
  <g transform="translate(1.0934022,1.7840166)" style="filter:url(#filter996);opacity:0.3">
   <path d="m 31.150696,275.8907 v -7.08638 h 1.029647 v -6.60183 H 15.062585 l -4.141347,4.14136 v 6.51848 h 1.090211 v 1.93815 h -1.090211 v 12.53743 H 32.180343 V 275.8907 Z m -15.808048,-5.81445 h -2.059287 v -4.36085 h 2.059287 z m 3.5129,-2.18042 h -2.059286 v -4.36087 h 2.059286 z m 3.634035,0 h -2.059286 v -4.36087 h 2.059286 z m 3.452333,0 h -2.059288 v -4.36087 h 2.059288 z m 3.634032,0 h -2.059282 v -4.36087 h 2.059282 z"/>
   <g transform="matrix(-1,0,0,1,89.35903,-4.0261033)">
    <rect width="14.552" height="6.615" x="39.69" y="238.79"/>
    <rect width="2.646" height="6.615" x="37.04" y="241.44"/>
    <path d="m 54.963197,252.07818 v -7.08638 h 1.029647 v -6.60183 H 38.875086 l -4.141347,4.14136 v 6.51848 h 1.090211 v 1.93815 h -1.090211 v 12.53743 h 21.259105 v -11.44721 z m -15.808048,-5.81445 h -2.059287 v -4.36085 h 2.059287 z m 3.5129,-2.18042 h -2.059286 v -4.36087 h 2.059286 z m 3.634035,0 h -2.059286 v -4.36087 h 2.059286 z m 3.452333,0 h -2.059288 v -4.36087 h 2.059288 z m 3.634032,0 h -2.059282 v -4.36087 h 2.059282 z"/>
   </g>
  </g>
  <rect width="31.757" height="31.757" x="235.09" y="-65.6" transform="rotate(90)" style="fill:none"/>
  <path style="opacity:0.1;fill:#ffffff" d="M 25.707031 22.121094 C 25.529203 22.236746 25.309577 22.319349 25.134766 22.4375 C 23.344712 23.647352 21.71247 24.988656 20.224609 26.474609 C 18.736749 27.960563 17.393134 29.591034 16.181641 31.378906 C 14.970148 33.166779 13.890637 35.110955 12.929688 37.226562 C 11.968738 39.34217 11.126855 41.628497 10.390625 44.097656 C 9.6543948 46.566815 9.0236635 49.219832 8.4863281 52.068359 C 7.9489927 54.916886 7.50489 57.961132 7.140625 61.214844 C 6.77636 64.468555 6.4924096 67.930522 6.2753906 71.615234 C 5.8413528 78.98466 5.6757812 87.241905 5.6757812 96.490234 L 5.6757812 155.74219 C 5.6757812 164.99048 5.8413528 173.24778 6.2753906 180.61719 C 6.4924096 184.30189 6.77636 187.76387 7.140625 191.01758 C 7.50489 194.27128 7.9489927 197.31554 8.4863281 200.16406 C 9.0236635 203.01259 9.6543948 205.66561 10.390625 208.13477 C 11.126855 210.60392 11.968738 212.89025 12.929688 215.00586 C 13.890637 217.12147 14.970148 219.06564 16.181641 220.85352 C 17.393134 222.64139 18.736749 224.27185 20.224609 225.75781 C 21.71247 227.24377 23.344712 228.58506 25.134766 229.79492 C 26.924819 231.00478 28.872165 232.0834 30.990234 233.04297 C 33.108304 234.00254 35.39723 234.84302 37.869141 235.57812 C 40.341052 236.31323 42.99608 236.94402 45.847656 237.48047 C 48.699233 238.01692 51.74684 238.4606 55.003906 238.82422 C 58.260972 239.18783 61.727635 239.47091 65.416016 239.6875 C 72.792777 240.12069 81.057489 240.28516 90.314453 240.28516 L 165.68555 240.28516 C 174.94251 240.28516 183.20722 240.12069 190.58398 239.6875 C 194.27236 239.47091 197.73903 239.18783 200.99609 238.82422 C 204.25316 238.4606 207.30077 238.01692 210.15234 237.48047 C 213.00392 236.94402 215.65895 236.31323 218.13086 235.57812 C 220.60277 234.84302 222.8917 234.00254 225.00977 233.04297 C 226.76335 232.24852 228.3302 231.318 229.85742 230.35352 L 25.707031 22.121094 z" transform="matrix(0.26458333,0,0,0.26458333,0,229.26666)"/>
  <rect style="fill:#ffa600" width="14.552" height="6.615" x="17.2" y="263.93"/>
  <path d="M 361.9375,-212 C 507.2348,-212 528,-191.28677 528,-46.125 V 70.125 C 528,215.28618 507.2348,236 361.9375,236 H 214.0625 C 68.7652,236 48,215.28618 48,70.125 V -46.125 C 48,-191.28677 68.7652,-212 214.0625,-212 Z" clip-path="url(#clipPath1082-3-361)" transform="matrix(0.1348539,0,0,0.1348539,-4.9712559,261.01666)" style="opacity:0.4;fill:none;stroke:url(#linearGradient1108);stroke-width:8;stroke-linecap:round;stroke-linejoin:round"/>
  <rect style="fill:#ffa600" width="2.646" height="6.615" x="14.29" y="266.57"/>
  <g transform="translate(1.0934022,1.7840166)">
   <path style="fill:#2c568b" d="m 31.150696,275.8907 v -7.08638 h 1.029647 v -6.60183 H 15.062585 l -4.141347,4.14136 v 6.51848 h 1.090211 v 1.93815 h -1.090211 v 12.53743 H 32.180343 V 275.8907 Z m -15.808048,-5.81445 h -2.059287 v -4.36085 h 2.059287 z m 3.5129,-2.18042 h -2.059286 v -4.36087 h 2.059286 z m 3.634035,0 h -2.059286 v -4.36087 h 2.059286 z m 3.452333,0 h -2.059288 v -4.36087 h 2.059288 z m 3.634032,0 h -2.059282 v -4.36087 h 2.059282 z"/>
   <g transform="matrix(-1,0,0,1,89.35903,-4.0261033)" style="fill:#8c063a">
    <rect width="14.552" height="6.615" x="39.69" y="238.79" style="fill:#ffa600"/>
    <rect width="2.646" height="6.615" x="37.04" y="241.44" style="fill:#ffa600"/>
    <path style="fill:#8c063a" d="m 54.963197,252.07818 v -7.08638 h 1.029647 v -6.60183 H 38.875086 l -4.141347,4.14136 v 6.51848 h 1.090211 v 1.93815 h -1.090211 v 12.53743 h 21.259105 v -11.44721 z m -15.808048,-5.81445 h -2.059287 v -4.36085 h 2.059287 z m 3.5129,-2.18042 h -2.059286 v -4.36087 h 2.059286 z m 3.634035,0 h -2.059286 v -4.36087 h 2.059286 z m 3.452333,0 h -2.059288 v -4.36087 h 2.059288 z m 3.634032,0 h -2.059282 v -4.36087 h 2.059282 z"/>
   </g>
  </g>
 </g>
</svg>
